X:1
T:14 Bagatelles
T:Andante sostenuto
T: 
T:14 Bagatelles 
T:8. Andante sostenuto
T:Béla Bartók 
T:Sz. 38
T:Oli 2020
T:Oli 2020
C:Bartók, Béla
Z:Oli 2020
%%score { ( 1 4 ) | ( 2 3 ) }
L:1/8
Q:1/4=54
M:2/4
K:C
V:1 treble nm="Piano"
V:4 treble 
V:2 bass 
V:3 bass 
V:1
"^Andante sostenuto-60"!p! (!tenuto!!3!^c!tenuto!=c!tenuto!B!tenuto!!4!_B | A2 C2) | %2
 ((^c^g/<^d'/) (B^f/<^c'/) |!<(! (!>!!5!A2 D2)!<)! | !5!^D4- | !breath!D2)!>(! (^F2 | %6
 B,)!>)! z (^F2 | ^D/<B,/) z _G2 | (!>!_E/<"_cresc."!2-4!=B,/- B,3- |!>(! B,2!>)! _B,2) |!p! z4 | %11
!<(! (!tenuto!e!tenuto!f!tenuto!^f!tenuto!!5!d'!<)! |!>(! !>!^d'2!>)! !courtesy!=d) z | %13
!>(! (_b2!>)! A) z |!>(! (_e2!>)! D)"^espr." !>!!5!G- | %15
[Q:1/4=42]"^-46""^Sostenuto"!p! G2- G/(!4!_A/_B/A/) | !>!!5!G4- | %17
[M:3/4] G/!<(!(_A/!2!_B/!1!_c/ _d/!<)!_e/!>(!=e/=d/ (5:4:5!1!=c/!4!_B/!>)!_A/_F/!>!!5!_E/- | %18
[M:2/4] E2- E/)(!3!_G/_B/!4!=G/) |[M:3/4] !5!_E6- | %20
!<(! E/(!2!^F/"_poco agitato"[Q:1/4=68]"^T"_B/!1!G/ =B/_e/!1!c/=e/ !4!^g/!2!^f/^a/)(b/!<)! | %21
 !3!=g/!f!^c)(^a/ b/g/c/)!>!^f/-!<(! f/(e/^g/!<)!^a/ | %22
[M:2/4]"_poco rit."[Q:1/4=55]"^T" !courtesy!=g/)!>!b!>!b/- b/[I:staff +1]!>!b/[I:staff -1] z | %23
!mp![Q:1/4=36]"^Più sostenuto"!>(! (!3!_d'/c'/_c'/!>)!!4!_b/!>(! a!>)!c/) z/ | %24
!>(! (!4!g/^f/=f/!>)!=e/!>(! !4!_e!>)!G/) z/ | %25
 ([c_a]/[Bg]/[_B_g]/[Af]/!>(! [^Ge]!>)![c=a]/)"_dim." z/ | %26
[M:3/4]!>(! [^E^c]!>)![A^f]/ z/!>(! [^B,^G]!>)![=E^c]/ z/ z2 | %27
[M:2/4]"^Ritenuto"!p![Q:1/4=30]"^T" z2 [^Fc]2- | ([Fc]2 [=FB][Bf]) | ([E_B]2 [_EA][A_e]) | %30
!<(! ([D_A]3 (!^![D^F]-)!<)! |!>(! [DF]3!>)! G) |] %32
V:2
({/!tenuto!!2!!1![^G,^B,]-} [G,B,]{/!tenuto!!3!!1![=G,=B,]-}[G,B,]{/!tenuto!!4!!2![^F,^A,]-}[F,A,]{/!tenuto!!3!!1![=F,=A,]-}[F,A,] | %1
{/!tenuto!!4!!2![E,^G,]-} [E,G,] !tenuto!!5!!1![_E,=G,]3) | %2
({/!tenuto![^G,^B,]-} [G,B,]{/!tenuto![=G,=B,]-}[G,B,]{/!tenuto![^F,^A,]-}[F,A,]{/!tenuto![F,A,]-}[F,A,] | %3
{/!tenuto![E,^G,]-} [E,G,] [A,,D,^F,]3) | z (!2!!4![A,^C][^G,B,]!1![^F,^A,] | %5
 !breath![E,^G,]2) (^D,2 | E,) z (^D,2 | E,) z _E,2 | =D,4- | D,4 | z4 | %11
({/!tenuto!!3!!1![B,^D]-} [B,D]{/!tenuto![A,^C]-}[A,C]{/!tenuto![_B,D]-}[B,D]{/!tenuto![_A,=C]-}[A,C] | %12
{/!tenuto!!5!!1![G,=B,]-} [G,B,] !tenuto![^F,^A,]2) z | z2!pp! [G,C_E^F] z | z2!pp! [_E,F,A,_C] z | %15
 (G,,_D,/F,/ _A,) z |!<(! (G,,_D,/!<)!F,/!<(! !>!_A,/=C,!<)!=E,/ |[M:3/4] F,2) z2 z2 | %18
[M:2/4] (_E,,=A,,/_D,/ _F,) z | %19
[M:3/4]!<(! (!2!!4![_B,D][A,^C]!<)![^G,^B,][=G,=B,]!2!!3![^F,^A,]!1!!3![=F,=A,] | %20
 [E,^G,]) z z2 z2 | z6 |[M:2/4][K:treble] z4 | %23
!>(!({!4!^gab!>!c'-} c'/{/b-}b/{/_b-}b/!>)!{/!1!a-}a/{/^g-} g/=g) z/ | %24
!>(!({/!3!^f-} f/{/!1!=f-}f/{/e-}e/!>)!{/_e-}e/{/d-} d/_d) z/ | %25
[K:bass]({/[B,G]-} [B,G]/{/[^A,^F]-}[A,F]/{/[=A,=F]-}[A,F]/{/[^G,E]-}[G,E]/{/[=G,_E]-} [G,E]/[^F,D]) z/ | %26
[M:3/4]({/[E,=C]-} [E,C]/[^D,B,]) z/{/[B,,=G,]-} ([B,,G,]/[^A,,^F,]) z/ z !tenuto!^F,, | %27
[M:2/4] z3/2 [!courtesy!=F,B,]/- [F,B,]2- | [F,B,]>[E,^A,]- [E,A,]>[_E,=A,]- | %29
 [E,A,]>[D,^G,]- [D,G,]>[^C,=G,]- | [C,G,]2 ([=C,^F,]([B,,E,-] | [_B,,E,]3)) z |] %32
V:3
 x4 | x4 | x4 | x4 | x (E,,^F,,3/2!2-3!^G,,/4^A,,/4 | B,,2) (B,,2 | ^C,) x (B,,2 | ^C,) x _C,2 | %8
 !>!G,,4- | G,,4 | x4 | x4 | x4 | x4 | x4 | x4 | x4 |[M:3/4] x6 |[M:2/4] x4 | %19
[M:3/4] (_E,,A,,/^C,/ !>!=E,/=G,,B,,/ !>!D,/=F,,A,,/ | C,) x x2 x2 | x6 |[M:2/4][K:treble] x4 | %23
 x4 | x4 |[K:bass] x4 |[M:3/4] x6 |[M:2/4] G,,4- | G,,4- | G,,4- | G,,2 G,,2- | G,,2 x2 |] %32
V:4
 x4 | x4 | x4 | x4 | x4 | x2 ^A,2- | A, x ^A,2- | A, x _B,2- | B,3!<(! A,!<)! | _A,2 G,2 | x4 | %11
 x4 | x4 | x4 | x4 | (!1!!4![D^F]!2!!4![_D=F] [_C_E]) z | ([D^F][_D=F][_C_E][_B,=D] | %17
[M:3/4] [A,^C]2) z2 z2 |[M:2/4] (!2!!4![_B,D][A,^C] [_A,=C]) z |[M:3/4] x6 | x6 | x6 |[M:2/4] x4 | %23
 x4 | x4 | x4 |[M:3/4] x6 |[M:2/4] x4 | x4 | x4 | x4 | x4 |] %32

